X:1
T:Title
%%score { 1 | ( 2 3 ) }
L:1/8
Q:1/4=75
M:6/8
K:Db
V:1 treble nm="Grand Piano"
V:2 bass 
V:3 bass 
V:1
 F2 A G2 B | A2 [Fd] edB | d2 D G2 F | [CE]2 [B,=D] .[CE]3 | F2 A G2 B | A2 [Fd] edB | d2 D G2 F | %7
w: Charles~S.~Brown * * *|||||||
 [A,CF]2[K:bass] [G,CE] .[F,D]3 | [A,CE]2 [CF] [CG]2 .[A,CF] | [CGB]2 [CGA] [DFA]2 [A,DF] | %10
w: |||
 [A,CE]2 [CF] [CG]2 .[A,CF] | [CGB]2 [CGA] .[DFA]3 | F2 A G2 B | A2 [Fd] edB | d2 D G2 F | %15
w: |||||
 [CF]2 [CE] .D3 |] %16
w: |
V:2
 [D,A,D]2 [F,A,D] [E,A,C]2 [G,A,C] | [F,A,D]2 [D,A,][K:treble] [G,B,G]2 [DG] | %2
 [F,A,D]2 [F,A,] [G,B,D]2 [A,D] | [A,,A,]2 [A,,A,] .[A,,A,]3 | [D,A,D]2 [F,A,D] [E,A,C]2 [G,A,C] | %5
 [F,A,D]2 [D,A,] [G,B,G]2 [G,DG] | [F,A,D]2 [F,A,] [G,B,D]2 [A,D] | A,,2 A,, .D,3 | %8
 A,,2 [A,,E,] [A,,E,]2 z/ G/ | A,,2 A,, D,2 D, | A,,2 [A,,E,] [A,,E,]2 z/ G/ | A,,2 A,, .D,3 | %12
 [D,A,D]2 [F,A,D] [E,A,C]2 [G,A,C] | [F,A,D]2 [D,A,] [G,B,G]2 [G,DG] | %14
 [F,A,D]2 [F,A,] [G,B,D]2 [A,D] | [A,,A,]2 [A,,G,] .[D,F,]3 |] %16
V:3
 x6 | x3[K:treble] x3 | x6 | x6 | x6 | x6 | x6 | x6 | z3 z2 A,, | x6 | z3 z2 A,, | x6 | x6 | x6 | %14
 x6 | x6 |] %16

